svgs/solid/face-tongue-sweat.svg

<svg xmlns="http://www.w3.org/2000/svg" viewBox="0 0 576 512"><!--! Font Awesome Pro 6.2.0 by @fontawesome - https://fontawesome.com License - https://fontawesome.com/license (Commercial License) Copyright 2022 Fonticons, Inc. --><path d="M544 256c0 112.9-73.1 208.7-174.5 242.8C378.7 484 384 466.6 384 448V416.7c10.2-7.2 16-15.7 16-24.7c0-26.5-50.1-48-112-48s-112 21.5-112 48c0 9 5.8 17.5 16 24.7V448c0 18.6 5.3 36 14.5 50.8c-41.3-13.9-78-38-106.9-69.4C116.9 415 128 393.5 128 369c0-11.4-3.8-22.4-7.1-30.5c-3.7-8.7-8.4-17.6-13.2-25.7C98.1 296.7 87 281.3 80 272.1c-11.6-15.6-31.7-19.9-48-12.8c0-1.1 0-2.2 0-3.3C32 114.6 146.6 0 288 0S544 114.6 544 256zM96 369c0 14.2-6.4 26.9-16.5 35.5C71 411.7 60 416 48 416c-26.5 0-48-21-48-47c0-17.3 21.4-50 35.7-69.7c2.2-3 4.2-5.8 5.9-8.1c3.2-4.4 9.6-4.4 12.8 0C67.6 308.6 96 349 96 369zm239.6-97c0 17.7 14.3 32 32 32s32-14.3 32-32s-14.3-32-32-32s-32 14.3-32 32zm-128 32c17.7 0 32-14.3 32-32s-14.3-32-32-32s-32 14.3-32 32s14.3 32 32 32zm19.7-155.3c-6.2-6.2-16.4-6.2-22.6 0l-7.4 7.4c-18.9 18.9-43.2 31.4-69.5 35.7l-2.5 .4c-8.7 1.5-14.6 9.7-13.2 18.4s9.7 14.6 18.4 13.2l2.5-.4c32.9-5.5 63.3-21.1 86.8-44.7l7.4-7.4c6.2-6.2 6.2-16.4 0-22.6zm121.4 22.6l7.4 7.4c23.6 23.6 53.9 39.2 86.8 44.7l2.5 .4c8.7 1.5 17-4.4 18.4-13.2s-4.4-17-13.2-18.4l-2.5-.4c-26.3-4.4-50.6-16.9-69.5-35.7l-7.4-7.4c-6.2-6.2-16.4-6.2-22.6 0s-6.2 16.4 0 22.6zM352 402.6V448c0 35.3-28.7 64-64 64s-64-28.7-64-64V402.6c0-14.7 11.9-26.6 26.6-26.6h2c11.3 0 21.1 7.9 23.6 18.9c2.8 12.6 20.8 12.6 23.6 0c2.5-11.1 12.3-18.9 23.6-18.9h2c14.7 0 26.6 11.9 26.6 26.6z"/></svg>

<svg xmlns="http://www.w3.org/2000/svg" viewBox="0 0 576 512"><!--! Font Awesome Pro 6.1.2 by @fontawesome - https://fontawesome.com License - https://fontawesome.com/license (Commercial License) Copyright 2022 Fonticons, Inc. --><path d="M544 255.1C544 368.9 470.9 464.7 369.5 498.8C378.7 484 384 466.6 384 448V416.7C394.2 409.5 400 401 400 392C400 365.5 349.9 344 288 344C226.1 344 176 365.5 176 392C176 401 181.8 409.5 192 416.7V448C192 466.6 197.3 484 206.5 498.8C165.1 484.9 128.5 460.7 99.62 429.3C116.9 414.1 127.1 393.5 127.1 369C127.1 357.6 124.2 346.6 120.9 338.5C117.2 329.8 112.5 320.9 107.7 312.8C98.1 296.7 86.98 281.3 80.01 272.1C68.39 256.5 48.28 252.2 32.02 259.3C32.01 258.2 31.1 257.1 31.1 256C31.1 114.6 146.6 0 287.1 0C429.4 0 544 114.6 544 256L544 255.1zM335.6 271.1C335.6 289.7 349.1 303.1 367.6 303.1C385.3 303.1 399.6 289.7 399.6 271.1C399.6 254.3 385.3 239.1 367.6 239.1C349.1 239.1 335.6 254.3 335.6 271.1zM239.6 271.1C239.6 254.3 225.3 239.1 207.6 239.1C189.1 239.1 175.6 254.3 175.6 271.1C175.6 289.7 189.1 303.1 207.6 303.1C225.3 303.1 239.6 289.7 239.6 271.1zM204.7 148.7L197.3 156.1C178.5 174.9 154.2 187.4 127.9 191.8L125.4 192.2C116.7 193.7 110.8 201.9 112.2 210.6C113.7 219.3 121.9 225.2 130.6 223.8L133.1 223.4C166 217.9 196.4 202.3 219.9 178.7L227.3 171.3C233.6 165.1 233.6 154.9 227.3 148.7C221.1 142.4 210.9 142.4 204.7 148.7zM356.1 178.7C379.6 202.3 409.1 217.9 442.9 223.4L445.4 223.8C454.1 225.2 462.3 219.3 463.8 210.6C465.2 201.9 459.3 193.7 450.6 192.2L448.2 191.8C421.8 187.4 397.5 174.9 378.7 156.1L371.3 148.7C365.1 142.4 354.9 142.4 348.7 148.7C342.4 154.9 342.4 165.1 348.7 171.3L356.1 178.7zM96 369C96 383.2 89.58 395.9 79.45 404.5C71.02 411.7 60.02 416 48 416C21.54 416 0 395 0 369C0 351.7 21.44 319.1 35.66 299.4C37.84 296.3 39.86 293.6 41.6 291.3C44.8 286.9 51.2 286.9 54.4 291.3C67.57 308.6 95.1 349 95.1 369H96zM352 402.6V448C352 483.3 323.3 512 288 512C252.7 512 224 483.3 224 448V402.6C224 387.9 235.9 376 250.6 376H252.6C263.9 376 273.7 383.9 276.2 394.9C279 407.5 296.1 407.5 299.8 394.9C302.3 383.9 312.1 376 323.4 376H325.4C340.1 376 352 387.9 352 402.6V402.6z"/></svg>
